X:321
T:O'Keeffe's Slide  
F:file ID misc/321okeeffe (as "O'Keefe's)
B:"Where's the Crack? v/1" (DJ Taylor)
Z:bill@capeirish.com
L:1/8
M:12/8
Q:180
R:slide
K:D % transposed from C
A2F A2d f3 f2f| gfe fed B3-B2 A|
Bcd B2 A Bcd B2 A| Bcd efe d3-d3:|
a3-a2 f e2 d B3| e2 d BAB e2 d B2 A|
a3-a2 f e2 d B3| Bcd efe d3-d3:|

